Sources/FrostedUI/Resources/Icons.xcassets/gamepadFilled32.imageset/gamepad-filled-32.svg

<svg width="32" height="32" viewBox="0 0 32 32" fill="none" xmlns="http://www.w3.org/2000/svg" data-fui-icon="true">
  <path
    d="M22.3098 4.75977C26.5588 4.95855 30.0777 8.20216 30.5852 12.4658L31.7122 21.9385C32.0485 24.7642 29.8419 27.2495 26.9963 27.25H26.7346C25.7802 27.25 24.8475 26.9623 24.0588 26.4248L20.5969 24.0645C20.0575 23.6968 19.4196 23.5001 18.7668 23.5H13.2346C12.5816 23.5 11.9431 23.6967 11.4036 24.0645L7.94263 26.4248C7.15405 26.9625 6.22127 27.2499 5.26685 27.25H5.00513C2.15916 27.25 -0.0481279 24.7645 0.28833 21.9385L1.41626 12.4658C1.94029 8.06457 5.6724 4.75 10.1047 4.75H21.8967L22.3098 4.75977ZM10.5002 10.75C10.086 10.75 9.75024 11.0858 9.75024 11.5V13.75H7.50024C7.08603 13.75 6.75024 14.0858 6.75024 14.5C6.75024 14.9142 7.08603 15.25 7.50024 15.25H9.75024V17.5C9.75024 17.9142 10.086 18.25 10.5002 18.25C10.9143 18.2498 11.2502 17.9141 11.2502 17.5V15.25H13.5002C13.9143 15.2498 14.2502 14.9141 14.2502 14.5C14.2502 14.0859 13.9143 13.7502 13.5002 13.75H11.2502V11.5C11.2502 11.0859 10.9143 10.7502 10.5002 10.75ZM19.7502 15.5C19.0602 15.5002 18.5004 16.0599 18.5002 16.75C18.5004 17.4401 19.0602 17.9998 19.7502 18C20.4401 17.9996 21 17.4399 21.0002 16.75C21 16.0601 20.4401 15.5004 19.7502 15.5ZM22.8499 11C22.1598 11.0002 21.6001 11.5599 21.5999 12.25C21.6001 12.94 22.1598 13.4998 22.8499 13.5C23.5399 13.4999 24.0996 12.9401 24.0999 12.25C24.0997 11.5599 23.54 11.0001 22.8499 11Z"
    fill="currentColor"
  />
</svg>

<svg xmlns="http://www.w3.org/2000/svg" width="32" height="32" fill="none" data-fui-icon="true" viewBox="0 0 32 32"><path fill="currentColor" d="M22.31 4.76a8.75 8.75 0 0 1 8.275 7.706l1.127 9.473a4.75 4.75 0 0 1-4.716 5.311h-.261a4.75 4.75 0 0 1-2.676-.825l-3.462-2.36a3.25 3.25 0 0 0-1.83-.565h-5.532c-.653 0-1.292.197-1.831.564l-3.461 2.36a4.75 4.75 0 0 1-2.676.826h-.262a4.75 4.75 0 0 1-4.717-5.311l1.128-9.473a8.75 8.75 0 0 1 8.689-7.716h11.792zM10.5 10.75a.75.75 0 0 0-.75.75v2.25H7.5a.75.75 0 0 0 0 1.5h2.25v2.25a.75.75 0 1 0 1.5 0v-2.25h2.25a.75.75 0 0 0 0-1.5h-2.25V11.5a.75.75 0 0 0-.75-.75m9.25 4.75a1.25 1.25 0 1 0 .001 2.501 1.25 1.25 0 0 0 0-2.501m3.1-4.5a1.25 1.25 0 1 0 .001 2.501A1.25 1.25 0 0 0 22.85 11"/></svg>
